picto/stands-b-fr-small-framed.svg

<svg class="color-immutable" width="30" height="30" viewBox="0 0 30 30" fill="none" xmlns="http://www.w3.org/2000/svg"><path d="M30 0H0V30H30V0Z" fill="#2D327D"/><path d="M25.5 3C26.325 3 27 3.675 27 4.5V25.5C27 26.325 26.325 27 25.5 27H4.5C3.675 27 3 26.325 3 25.5V4.5C3 3.675 3.675 3 4.5 3H25.5ZM25.5 2.625H4.5C3.46613 2.625 2.625 3.46613 2.625 4.5V25.5C2.625 26.5339 3.46613 27.375 4.5 27.375H25.5C26.5339 27.375 27.375 26.5339 27.375 25.5V4.5C27.375 3.46613 26.5339 2.625 25.5 2.625Z" fill="white"/><path d="M10.5088 12.7566H15.569C16.6559 12.7566 17.4659 12.8925 17.9992 13.1642C18.5015 13.4206 18.881 13.7923 19.1374 14.2793C19.3527 14.6896 19.4604 15.1252 19.4604 15.5867C19.4604 16.0995 19.3297 16.5557 19.0682 16.9556C18.8068 17.3555 18.4273 17.6708 17.93 17.9015C18.3607 18.0451 18.6837 18.1964 18.899 18.3553C19.627 18.8885 19.9911 19.6653 19.9911 20.6854C19.9911 21.2905 19.8565 21.8339 19.5874 22.3158C19.3181 22.7978 18.9323 23.1848 18.4299 23.477C17.8351 23.8257 17.0327 24 16.0228 24H10.5088V12.7566ZM12.962 14.6869V17.3093H15.2076C15.7306 17.3093 16.1151 17.2478 16.3612 17.1247C16.8174 16.9044 17.0456 16.5249 17.0456 15.9865C17.0456 15.5303 16.902 15.1996 16.615 14.9944C16.3278 14.7895 15.8587 14.6868 15.2076 14.6868H12.962V14.6869ZM12.962 18.9859V22.0697H15.446C16.1586 22.0697 16.6585 21.9697 16.9457 21.7698C17.325 21.4981 17.5148 21.0853 17.5148 20.5316C17.5148 19.8703 17.2583 19.4191 16.7457 19.1781C16.4636 19.05 15.9894 18.9859 15.323 18.9859H12.962Z" fill="white"/><path d="M8.31786 8.2179L8.08716 8.46705L7.75491 8.16713C7.60933 8.25735 7.42783 8.3025 7.21041 8.3025C7.04323 8.3025 6.88896 8.27175 6.74743 8.21025C6.60591 8.14875 6.48748 8.06003 6.39216 7.94415C6.20961 7.7247 6.11841 7.45148 6.11841 7.12433C6.11841 6.77055 6.22558 6.4845 6.43986 6.2661C6.65008 6.0528 6.91461 5.94615 7.23351 5.94615C7.39858 5.94615 7.55113 5.97668 7.69108 6.03765C7.83103 6.09863 7.94976 6.18555 8.04718 6.29835C8.23686 6.51983 8.33173 6.79103 8.33173 7.11203C8.33173 7.28738 8.30533 7.4481 8.25253 7.5942C8.19973 7.7403 8.12458 7.86053 8.02723 7.95488L8.31786 8.2179ZM7.68418 7.63808C7.78573 7.5027 7.83643 7.32945 7.83643 7.11818C7.83643 6.89258 7.78468 6.71108 7.68111 6.57368C7.57243 6.4281 7.42018 6.35528 7.22428 6.35528C7.03461 6.35528 6.88438 6.42705 6.77361 6.5706C6.66696 6.708 6.61363 6.89153 6.61363 7.12125C6.61363 7.35915 6.66898 7.5468 6.77976 7.6842C6.89053 7.82363 7.03918 7.89338 7.22578 7.89338C7.30063 7.89338 7.36986 7.88213 7.43346 7.85955L7.20891 7.66268L7.43961 7.4166L7.68418 7.63808Z" fill="white"/><path d="M10.1912 6.56911V8.24873H9.76674V8.00416C9.63857 8.19796 9.45909 8.29486 9.22839 8.29486C9.02739 8.29486 8.87567 8.22766 8.77314 8.09333C8.73414 8.04106 8.70624 7.97948 8.68929 7.90876C8.67234 7.83803 8.66394 7.74571 8.66394 7.63193V6.56911H9.10997V7.49348C9.10997 7.58986 9.11282 7.65803 9.11844 7.69808C9.12407 7.73813 9.13562 7.77188 9.15302 7.79963C9.20019 7.87448 9.28067 7.91191 9.39452 7.91191C9.53499 7.91191 9.63699 7.84988 9.70059 7.72583C9.73134 7.66531 9.74672 7.55611 9.74672 7.39823V6.56911H10.1912Z" fill="white"/><path d="M12.0523 8.24865H11.5971C11.5776 8.18303 11.5678 8.12715 11.5678 8.08103C11.4284 8.22353 11.2484 8.29485 11.028 8.29485C10.8557 8.29485 10.7214 8.25488 10.625 8.17485C10.5142 8.0826 10.4589 7.9539 10.4589 7.78883C10.4589 7.5786 10.5537 7.43303 10.7434 7.35203C10.8203 7.31918 10.9618 7.28895 11.1679 7.26128C11.3453 7.23773 11.4558 7.21485 11.4993 7.1928C11.5429 7.17075 11.5647 7.12643 11.5647 7.05975C11.5647 6.91313 11.4673 6.83978 11.2725 6.83978C11.169 6.83978 11.0934 6.85823 11.0457 6.89513C10.998 6.93203 10.9665 6.99615 10.9511 7.08735H10.5297C10.543 6.90075 10.6132 6.75998 10.7404 6.66518C10.8676 6.57038 11.0485 6.5229 11.2833 6.5229C11.5428 6.5229 11.7345 6.5757 11.8586 6.6813C11.916 6.7305 11.9542 6.7833 11.9732 6.8397C11.9922 6.8961 12.0016 6.98528 12.0016 7.1073C12.0016 7.13295 12 7.24575 11.997 7.4457C11.9949 7.64768 11.9939 7.76355 11.9939 7.79333C11.9939 7.91535 11.9975 8.00483 12.0047 8.06175C12.0119 8.11868 12.0277 8.181 12.0523 8.24865ZM11.5617 7.43813C11.5042 7.47405 11.3997 7.50218 11.2479 7.52273C11.1412 7.53915 11.0643 7.56015 11.0172 7.5858C10.9505 7.62173 10.9172 7.6827 10.9172 7.7688C10.9172 7.83855 10.9392 7.89285 10.9833 7.93185C11.0274 7.97085 11.0889 7.99028 11.1679 7.99028C11.2992 7.99028 11.4053 7.94415 11.4863 7.85183C11.515 7.82003 11.5347 7.78695 11.5455 7.7526C11.5563 7.71825 11.5617 7.67288 11.5617 7.61648V7.43813Z" fill="white"/><path d="M12.7983 6V6.40147H12.3523V6H12.7983ZM12.7983 6.57217V8.24873H12.3523V6.57217H12.7983Z" fill="white"/></svg>

<svg class="color-immutable" width="30" height="30" viewBox="0 0 30 30" fill="none" xmlns="http://www.w3.org/2000/svg"><g clip-path="url(#a)"><path d="M30 0H0v30h30V0Z" fill="#2D327D"/><path d="M25.5 3c.825 0 1.5.675 1.5 1.5v21c0 .825-.675 1.5-1.5 1.5h-21c-.825 0-1.5-.675-1.5-1.5v-21C3 3.675 3.675 3 4.5 3h21Zm0-.375h-21A1.877 1.877 0 0 0 2.625 4.5v21c0 1.034.841 1.875 1.875 1.875h21a1.877 1.877 0 0 0 1.875-1.875v-21A1.877 1.877 0 0 0 25.5 2.625Z" fill="#fff"/><path d="M10.509 12.757h5.06c1.087 0 1.897.136 2.43.407.503.257.882.628 1.138 1.115.216.41.323.846.323 1.308 0 .512-.13.969-.392 1.369-.261.4-.64.715-1.138.945.43.144.754.295.969.454.728.534 1.092 1.31 1.092 2.33 0 .606-.134 1.149-.404 1.63-.269.483-.655.87-1.157 1.162-.595.349-1.397.523-2.407.523h-5.514V12.757Zm2.453 1.93v2.622h2.246c.523 0 .907-.061 1.153-.184.456-.22.685-.6.685-1.139 0-.456-.144-.786-.431-.992-.287-.204-.756-.307-1.407-.307h-2.246Zm0 4.299v3.084h2.484c.713 0 1.213-.1 1.5-.3.379-.272.569-.685.569-1.238 0-.662-.257-1.113-.77-1.354-.281-.128-.756-.192-1.422-.192h-2.361ZM8.318 8.218l-.23.25-.333-.3c-.146.09-.327.135-.545.135-.167 0-.321-.031-.463-.093a.935.935 0 0 1-.355-.266c-.182-.22-.274-.493-.274-.82 0-.353.108-.64.322-.858.21-.213.475-.32.794-.32.165 0 .317.03.457.092.14.06.259.148.356.26.19.222.285.493.285.814 0 .175-.027.336-.08.482a.936.936 0 0 1-.225.36l.29.264Zm-.634-.58a.843.843 0 0 0 .152-.52c0-.225-.051-.407-.155-.544a.537.537 0 0 0-.457-.219c-.19 0-.34.072-.45.216-.107.137-.16.32-.16.55 0 .238.055.426.166.563.11.14.26.21.446.21a.617.617 0 0 0 .207-.034l-.224-.197.23-.246.245.221ZM10.191 6.57v1.679h-.424v-.245a.61.61 0 0 1-.539.29c-.2 0-.352-.066-.455-.2a.5.5 0 0 1-.084-.185 1.227 1.227 0 0 1-.025-.277V6.569h.446v.924c0 .097.003.165.008.205.006.04.018.074.035.102.047.074.128.112.242.112a.32.32 0 0 0 .306-.186c.03-.06.046-.17.046-.328V6.57h.444ZM12.052 8.249h-.455a.606.606 0 0 1-.03-.168.722.722 0 0 1-.539.214c-.172 0-.307-.04-.403-.12a.475.475 0 0 1-.166-.386c0-.21.095-.356.284-.437.077-.033.219-.063.425-.09.177-.024.288-.047.331-.07.044-.021.066-.066.066-.132 0-.147-.098-.22-.292-.22-.104 0-.18.018-.227.055-.048.037-.08.101-.095.192h-.421a.545.545 0 0 1 .21-.422c.128-.095.309-.142.543-.142.26 0 .452.053.576.158.057.05.095.102.114.159a.911.911 0 0 1 .029.267l-.005.339-.003.347c0 .122.004.212.01.269.008.057.024.119.048.187Zm-.49-.81a.866.866 0 0 1-.314.084.756.756 0 0 0-.23.063c-.068.036-.1.097-.1.183 0 .07.021.124.065.163a.27.27 0 0 0 .185.058.403.403 0 0 0 .318-.138.27.27 0 0 0 .06-.1.466.466 0 0 0 .016-.136v-.178ZM12.798 6v.401h-.446V6h.446Zm0 .572V8.25h-.446V6.572h.446Z" fill="#fff"/></g><defs><clipPath id="a"><path fill="#fff" d="M0 0h30v30H0z"/></clipPath></defs></svg>
